**kern	**kern	**kern	**kern
*staff3	*staff4	*staff1	*staff2
*clefF4	*clefF4	*clefG2	*clefG2
*k[f#c#]	*k[f#c#]	*k[f#c#]	*k[f#c#]
*M2/4	*M2/4	*M2/4	*M2/4
*D:	*D:	*D:	*D:
=-	=-	=-	=-
2r	(16AALL	4e 4ee	2r
.	16A	.	.
.	16C#	.	.
.	16AAJJ	.	.
.	16GLL	8.eL 8.ee	.
.	16C#	.	.
.	16GG	.	.
.	16GJJ)	16eJk 16ee	.
=396	=396	=396	=396
2r	(16FF#LL	(4a 4aa	2r
.	16F#	.	.
.	16AA	.	.
.	16FF#JJ	.	.
.	16ELL	4g 4gg	.
.	16AA	.	.
.	16EE	.	.
.	16EJJ)	.	.
=397	=397	=397	=397
2r	(16DD#LL	4f# 4ff#	2r
.	16D#	.	.
.	16AA	.	.
.	16DD#JJ	.	.
.	16ELL	4g) 4gg	.
.	16AA	.	.
.	16EE	.	.
.	16EJJ)	.	.
=398	=398	=398	=398
2r	(16CC#LL	8.aL 8.aa	2r
.	16C#	.	.
.	16AA	.	.
.	16CC#JJ	16gJk 16gg	.
.	16DLL	4f# 4ff#	.
.	16AA	.	.
.	16DD	.	.
.	16DJJ)	.	.
=399	=399	=399	=399
2r	(16AALL	4e 4ee	2r
.	16A	.	.
.	16C#	.	.
.	16AAJJ	.	.
.	16GLL	8.eL 8.ee	.
.	16C#	.	.
.	16GG	.	.
.	16GJJ)	16eJk 16ee	.
=400	=400	=400	=400
2r	(16FF#LL	(4a 4aa	2r
.	16F#	.	.
.	16AA	.	.
.	16FF#JJ	.	.
.	16D#LL	4f# 4ff#	.
.	16AA	.	.
.	16DD#	.	.
.	16D#JJ)	.	.
=401	=401	=401	=401
2r	(16EELL	4g) 4gg	2r
.	16E	.	.
.	16AA	.	.
.	16EEJJ	.	.
.	16GLL	8.cc#L 8.ccc#	.
.	16E	.	.
.	16AA	.	.
.	16GJJ)	16cc#Jk 16ccc#	.
=402	=402	=402	=402
2r	(16F#LL	4dd 4ddd	2r
.	16D	.	.
.	16AA	.	.
.	16FF#JJ)	.	.
.	8DD	4r	.
.	8r	.	.
=403:|!	=403:|!	=403:|!	=403:|!
*-	*-	*-	*-
